source/img/icon-inst.svg

<svg width="21" height="20" viewBox="0 0 21 20" xmlns="http://www.w3.org/2000/svg">
<path d="M5.84581 0C2.6218 0 0 2.60401 0 5.80437V14.1971C0 17.3974 2.6218 20 5.84581 20H14.3512C17.5752 20 20.197 17.3974 20.197 14.1971V5.80437C20.197 2.60401 17.5752 0 14.3512 0H5.84581ZM5.84581 1.71935H14.3512C16.6458 1.71935 18.4664 3.52664 18.4664 5.80437V14.1971C18.4664 16.4748 16.6458 18.2807 14.3512 18.2807H5.84581C3.55123 18.2807 1.73203 16.4748 1.73203 14.1971V5.80437C1.73203 3.52664 3.55123 1.71935 5.84581 1.71935ZM15.5189 3.43867C14.8499 3.43867 14.3078 3.97676 14.3078 4.64091C14.3078 5.30507 14.8499 5.84315 15.5189 5.84315C16.188 5.84315 16.73 5.30507 16.73 4.64091C16.73 3.97676 16.188 3.43867 15.5189 3.43867ZM10.0985 4.85061C7.24365 4.85061 4.91107 7.16609 4.91107 10C4.91107 12.8339 7.24365 15.1494 10.0985 15.1494C12.9534 15.1494 15.2874 12.8339 15.2874 10C15.2874 7.16609 12.9534 4.85061 10.0985 4.85061ZM10.0985 6.56996C12.0175 6.56996 13.5553 8.09513 13.5553 10C13.5553 11.9049 12.0175 13.43 10.0985 13.43C8.17955 13.43 6.6431 11.9049 6.6431 10C6.6431 8.09513 8.17955 6.56996 10.0985 6.56996Z"/>
</svg>

<svg width="21" height="20" xmlns="http://www.w3.org/2000/svg"><path d="M5.846 0C2.622 0 0 2.604 0 5.804v8.393C0 17.397 2.622 20 5.846 20h8.505c3.224 0 5.846-2.603 5.846-5.803V5.804c0-3.2-2.622-5.804-5.846-5.804H5.846zm0 1.72h8.505c2.295 0 4.115 1.807 4.115 4.084v8.393c0 2.278-1.82 4.084-4.115 4.084H5.846c-2.295 0-4.114-1.806-4.114-4.084V5.804c0-2.277 1.82-4.085 4.114-4.085zm9.673 1.719c-.67 0-1.211.538-1.211 1.202 0 .664.542 1.202 1.21 1.202.67 0 1.212-.538 1.212-1.202 0-.664-.542-1.202-1.211-1.202zm-5.42 1.412C7.243 4.85 4.91 7.166 4.91 10s2.333 5.15 5.188 5.15c2.854 0 5.188-2.316 5.188-5.15 0-2.834-2.334-5.15-5.189-5.15zm0 1.719A3.43 3.43 0 0113.554 10a3.43 3.43 0 01-3.457 3.43A3.43 3.43 0 016.643 10a3.43 3.43 0 013.455-3.43z"/></svg>
